src/img/file-icon.svg

<svg width="18" height="20" viewBox="0 0 18 20" fill="none" xmlns="http://www.w3.org/2000/svg">
<path d="M16.3839 4.24107L12.9018 0.758929C12.4888 0.345982 11.6629 0 11.0714 0H1.07143C0.479911 0 0 0.479912 0 1.07143V18.9286C0 19.5201 0.479911 20 1.07143 20H16.0714C16.6629 20 17.1429 19.5201 17.1429 18.9286V6.07143C17.1429 5.47991 16.7969 4.65402 16.3839 4.24107ZM11.4286 1.51786C11.6183 1.58482 11.808 1.68527 11.8862 1.76339L15.3795 5.2567C15.4576 5.33482 15.558 5.52455 15.625 5.71429H11.4286V1.51786ZM15.7143 18.5714H1.42857V1.42857H10V6.07143C10 6.66295 10.4799 7.14286 11.0714 7.14286H15.7143V18.5714ZM4.28571 8.92857V9.64286C4.28571 9.84375 4.44197 10 4.64286 10H12.5C12.7009 10 12.8571 9.84375 12.8571 9.64286V8.92857C12.8571 8.72768 12.7009 8.57143 12.5 8.57143H4.64286C4.44197 8.57143 4.28571 8.72768 4.28571 8.92857ZM12.5 11.4286H4.64286C4.44197 11.4286 4.28571 11.5848 4.28571 11.7857V12.5C4.28571 12.7009 4.44197 12.8571 4.64286 12.8571H12.5C12.7009 12.8571 12.8571 12.7009 12.8571 12.5V11.7857C12.8571 11.5848 12.7009 11.4286 12.5 11.4286ZM12.5 14.2857H4.64286C4.44197 14.2857 4.28571 14.442 4.28571 14.6429V15.3571C4.28571 15.558 4.44197 15.7143 4.64286 15.7143H12.5C12.7009 15.7143 12.8571 15.558 12.8571 15.3571V14.6429C12.8571 14.442 12.7009 14.2857 12.5 14.2857Z" fill="#272733"/>
</svg>

<svg xmlns="http://www.w3.org/2000/svg" width="18" height="20" fill="none" viewBox="0 0 18 20"><path fill="#272733" d="M16.384 4.241 12.902.76C12.489.346 11.662 0 11.072 0h-10C.48 0 0 .48 0 1.071V18.93C0 19.52.48 20 1.071 20h15c.592 0 1.072-.48 1.072-1.071V6.07c0-.591-.346-1.417-.76-1.83m-4.955-2.723c.19.067.379.167.457.245l3.494 3.494c.078.078.178.268.245.457h-4.196zm4.285 17.053H1.43V1.43H10V6.07c0 .592.48 1.072 1.071 1.072h4.643zM4.286 8.93v.714c0 .2.156.357.357.357H12.5c.2 0 .357-.156.357-.357v-.714c0-.201-.156-.358-.357-.358H4.643c-.201 0-.357.157-.357.358m8.214 2.5H4.643c-.201 0-.357.156-.357.357v.714c0 .2.156.357.357.357H12.5c.2 0 .357-.156.357-.357v-.714c0-.201-.156-.357-.357-.357m0 2.857H4.643c-.201 0-.357.156-.357.357v.714c0 .201.156.357.357.357H12.5c.2 0 .357-.156.357-.357v-.714c0-.201-.156-.357-.357-.357"/></svg>
